X: 542
T: Guijie shaoshu
%%abc-version 2.0
%%abcx-abcm2ps-target-version 5.9.1 (29 Sep 2008)
%%abc-creator hum2abc beta
%%abcx-conversion-date 2013/10/02 07:52:30
%%abc-edited-by Helmut Schaffrath
%%humdrum-veritas 1965202634
%%humdrum-veritas-data 2426575890
%%continueall 1
%%barnumbers 0
L: 1/8
M: 2/4
K: Eb
e> c B c/ c/ [I:setbarnb 1]| 
e4 | 
e> f g g | 
b4 | 
e G f f/ g/ | 
g B/ c/e2 | 
e g f f/ c/ | 
B4 |]  



